X:132
T:West's Hornpipe,aka. Le4.132
T:Untitled in MS. Le4.132
M:C|
L:1/8
Q:1/4=120
B:L.Leadley MS#4 c1850
Z:Village Music Project, 2016 Ruairidh Greig
K:D
AB/c/|d2FG AFAF|d2FGA2(Bc)|BAGFE2ef|gefd dcBA|
d2FG AFAF|d2FGA2Bc|BAGFE2e/f/g|fdecd2:|
|:de|f2d2dfdf|e2c2cece|f2d2dfdf|edcBA2Bc|
dBBd cAAc|dBBd cAAc|Bcde cBAG|A2AA"Da Capo"A2:|

